dist/img/menu/menu__icon6.svg

<svg width="24" height="24" viewBox="0 0 24 24" fill="none" xmlns="http://www.w3.org/2000/svg">
<path d="M21.874 9.69062L20.3299 9.42866C20.169 8.90934 19.9622 8.4084 19.7094 7.93044L20.6194 6.65741C21.0054 6.1151 20.9457 5.37518 20.4723 4.90641L19.1028 3.53687C18.8454 3.27951 18.5053 3.13704 18.1423 3.13704C17.8573 3.13704 17.5862 3.22436 17.3564 3.38981L16.0788 4.29977C15.5824 4.03781 15.0631 3.82181 14.5254 3.66096L14.268 2.13516C14.1577 1.47796 13.5924 1 12.9261 1H10.9912C10.3248 1 9.75956 1.47796 9.64926 2.13516L9.3827 3.69772C8.86798 3.85858 8.36704 4.06998 7.88908 4.32735L6.62524 3.41738C6.39545 3.25193 6.1197 3.16461 5.83476 3.16461C5.47169 3.16461 5.12701 3.30708 4.87424 3.56445L3.5001 4.93399C3.03134 5.40276 2.96699 6.14268 3.35304 6.68498L4.2722 7.97639C4.01943 8.45895 3.81721 8.95989 3.66096 9.47921L2.13516 9.73658C1.47796 9.84688 1 10.4122 1 11.0785V13.0134C1 13.6798 1.47796 14.245 2.13516 14.3553L3.69772 14.6219C3.85858 15.1366 4.06998 15.6376 4.32735 16.1155L3.42198 17.3748C3.03593 17.9171 3.09568 18.657 3.56904 19.1258L4.93858 20.4953C5.19595 20.7527 5.53604 20.8951 5.8991 20.8951C6.18404 20.8951 6.45519 20.8078 6.68498 20.6424L7.9764 19.7232C8.44057 19.9668 8.92772 20.1644 9.42866 20.3207L9.68603 21.8648C9.79632 22.522 10.3616 23 11.028 23H12.9674C13.6338 23 14.1991 22.522 14.3094 21.8648L14.5713 20.3207C15.0907 20.1598 15.5916 19.953 16.0696 19.7002L17.3426 20.6102C17.5724 20.7756 17.8481 20.863 18.1331 20.863C18.4961 20.863 18.8362 20.7205 19.0936 20.4631L20.4631 19.0936C20.9319 18.6248 20.9962 17.8849 20.6102 17.3426L19.7002 16.065C19.953 15.5824 20.1644 15.0815 20.3207 14.5667L21.8648 14.3094C22.522 14.1991 23 13.6338 23 12.9674V11.0326C23.0092 10.3662 22.5312 9.80092 21.874 9.69062ZM21.7683 12.9674C21.7683 13.0272 21.727 13.0777 21.6672 13.0869L19.737 13.4086C19.4934 13.45 19.3004 13.6292 19.2407 13.8636C19.066 14.5392 18.7995 15.1872 18.441 15.7892C18.3169 16.0006 18.3261 16.2626 18.4686 16.4648L19.6037 18.0641C19.6359 18.1101 19.6313 18.179 19.5899 18.2204L18.2204 19.5899C18.1882 19.6221 18.156 19.6267 18.1331 19.6267C18.1055 19.6267 18.0825 19.6175 18.0641 19.6037L16.4694 18.4686C16.2718 18.3261 16.0052 18.3169 15.7938 18.441C15.1918 18.7995 14.5438 19.066 13.8682 19.2407C13.6292 19.3004 13.45 19.498 13.4132 19.737L13.0869 21.6672C13.0777 21.727 13.0272 21.7683 12.9674 21.7683H11.0326C10.9728 21.7683 10.9223 21.727 10.9131 21.6672L10.5914 19.737C10.55 19.4934 10.3708 19.3004 10.1364 19.2407C9.47922 19.0706 8.845 18.8086 8.25214 18.4686C8.15563 18.4134 8.04533 18.3858 7.93963 18.3858C7.81554 18.3858 7.68686 18.4226 7.58116 18.5007L5.97263 19.6451C5.94966 19.6589 5.92668 19.6681 5.9037 19.6681C5.88531 19.6681 5.84855 19.6635 5.81638 19.6313L4.44684 18.2618C4.40547 18.2204 4.40088 18.156 4.43305 18.1055L5.56361 16.5199C5.70608 16.3177 5.71527 16.0512 5.59119 15.8398C5.23271 15.2423 4.95697 14.5943 4.78233 13.9187C4.71799 13.6844 4.52496 13.5051 4.28598 13.4638L2.34197 13.1329C2.28222 13.1237 2.24086 13.0731 2.24086 13.0134V11.0785C2.24086 11.0188 2.28222 10.9682 2.34197 10.9591L4.25841 10.6374C4.50199 10.596 4.6996 10.4168 4.75935 10.1778C4.92939 9.50219 5.19135 8.84959 5.54523 8.24755C5.66931 8.03614 5.65553 7.77418 5.51306 7.57656L4.36871 5.96804C4.33654 5.92208 4.34113 5.85314 4.38249 5.81178L5.75204 4.44224C5.78421 4.41007 5.81638 4.40547 5.83936 4.40547C5.86693 4.40547 5.88991 4.41466 5.90829 4.42845L7.49384 5.55901C7.69605 5.70148 7.96261 5.71068 8.17401 5.58659C8.77147 5.22812 9.41947 4.95237 10.095 4.77773C10.3294 4.71339 10.5087 4.52037 10.55 4.28139L10.8809 2.33737C10.8901 2.27763 10.9407 2.23626 11.0004 2.23626H12.9352C12.995 2.23626 13.0455 2.27763 13.0547 2.33737L13.3764 4.25381C13.4178 4.49739 13.597 4.69501 13.836 4.75475C14.53 4.92939 15.1918 5.20054 15.8076 5.56361C16.019 5.6877 16.281 5.6785 16.4832 5.53604L18.0687 4.39628C18.0917 4.38249 18.1147 4.3733 18.1377 4.3733C18.156 4.3733 18.1928 4.3779 18.225 4.41007L19.5945 5.77961C19.6359 5.82097 19.6405 5.88531 19.6083 5.93587L18.4732 7.5306C18.3307 7.72822 18.3215 7.99478 18.4456 8.20618C18.8041 8.80823 19.0706 9.45624 19.2452 10.1318C19.305 10.3708 19.5026 10.55 19.7416 10.5868L21.6718 10.9131C21.7316 10.9223 21.7729 10.9728 21.7729 11.0326V12.9674H21.7683Z" fill="#BFC0C4" stroke="#BFC0C4" stroke-width="0.5"/>
<path d="M12.002 7.24925C9.38242 7.24925 7.25458 9.3771 7.25458 11.9967C7.25458 14.6163 9.38242 16.7441 12.002 16.7441C14.6216 16.7441 16.7495 14.6163 16.7495 11.9967C16.7495 9.3771 14.6216 7.24925 12.002 7.24925ZM12.002 15.5033C10.0672 15.5033 8.49544 13.9315 8.49544 11.9967C8.49544 10.0619 10.0672 8.49011 12.002 8.49011C13.9368 8.49011 15.5086 10.0619 15.5086 11.9967C15.5086 13.9315 13.9368 15.5033 12.002 15.5033Z" fill="#BFC0C4" stroke="#BFC0C4" stroke-width="0.5"/>
</svg>

<svg width="24" height="24" fill="none" xmlns="http://www.w3.org/2000/svg"><path d="M21.874 9.69l-1.544-.26a8.72 8.72 0 00-.62-1.499l.91-1.273a1.355 1.355 0 00-.148-1.75l-1.37-1.37a1.35 1.35 0 00-1.746-.147l-1.277.91a8.63 8.63 0 00-1.554-.639l-.257-1.526A1.358 1.358 0 0012.926 1h-1.935c-.666 0-1.231.478-1.342 1.135l-.266 1.563a8.505 8.505 0 00-1.494.63l-1.264-.91a1.35 1.35 0 00-.79-.253c-.363 0-.708.142-.96.4L3.5 4.933a1.36 1.36 0 00-.147 1.751l.92 1.291A8.516 8.516 0 003.66 9.48l-1.526.258A1.358 1.358 0 001 11.078v1.935c0 .667.478 1.232 1.135 1.342l1.563.267c.16.515.372 1.016.63 1.494l-.906 1.259a1.355 1.355 0 00.147 1.75l1.37 1.37a1.349 1.349 0 001.746.147l1.291-.919c.465.244.952.441 1.453.598l.257 1.544c.11.657.676 1.135 1.342 1.135h1.94c.666 0 1.231-.478 1.341-1.135l.262-1.544a8.72 8.72 0 001.499-.62l1.273.91c.23.165.505.252.79.252.363 0 .703-.142.96-.4l1.37-1.37a1.36 1.36 0 00.147-1.75l-.91-1.278c.253-.483.464-.984.62-1.498l1.545-.258A1.358 1.358 0 0023 12.967v-1.934a1.341 1.341 0 00-1.126-1.342zm-.106 3.277a.12.12 0 01-.1.12l-1.931.322a.617.617 0 00-.496.455 7.357 7.357 0 01-.8 1.925.621.621 0 00.028.676l1.135 1.6a.125.125 0 01-.014.155l-1.37 1.37a.117.117 0 01-.087.037.113.113 0 01-.069-.023l-1.595-1.135a.621.621 0 00-.675-.028 7.357 7.357 0 01-1.926.8.61.61 0 00-.455.496l-.326 1.93a.119.119 0 01-.12.101h-1.934a.119.119 0 01-.12-.1l-.322-1.931a.617.617 0 00-.455-.496 7.645 7.645 0 01-1.884-.772.636.636 0 00-.312-.083.605.605 0 00-.359.115l-1.608 1.144a.137.137 0 01-.07.023.123.123 0 01-.087-.037l-1.37-1.37a.125.125 0 01-.013-.155l1.13-1.586a.629.629 0 00.028-.68 7.288 7.288 0 01-.809-1.921.63.63 0 00-.496-.455l-1.944-.331a.12.12 0 01-.101-.12V11.08c0-.06.041-.11.101-.12l1.916-.322a.621.621 0 00.501-.46c.17-.675.432-1.327.786-1.93a.614.614 0 00-.032-.67L4.37 5.968a.125.125 0 01.013-.156l1.37-1.37a.117.117 0 01.087-.037c.028 0 .05.01.07.023L7.493 5.56a.63.63 0 00.68.028 7.288 7.288 0 011.921-.81.63.63 0 00.455-.496l.33-1.944a.12.12 0 01.12-.1h1.935c.06 0 .11.04.12.1l.321 1.917a.621.621 0 00.46.5 7.459 7.459 0 011.972.81.621.621 0 00.675-.028l1.586-1.14a.137.137 0 01.069-.023c.018 0 .055.005.087.037l1.37 1.37a.125.125 0 01.013.156L18.473 7.53a.62.62 0 00-.027.675c.358.602.625 1.25.8 1.926a.61.61 0 00.496.455l1.93.326c.06.01.1.06.1.12v1.934h-.004z" fill="#BFC0C4" stroke="#BFC0C4" stroke-width=".5"/><path d="M12.002 7.25a4.75 4.75 0 00-4.747 4.747 4.75 4.75 0 004.747 4.747 4.75 4.75 0 004.748-4.747 4.75 4.75 0 00-4.748-4.748zm0 8.253a3.509 3.509 0 01-3.507-3.506 3.509 3.509 0 013.507-3.507 3.509 3.509 0 013.507 3.507 3.509 3.509 0 01-3.507 3.506z" fill="#BFC0C4" stroke="#BFC0C4" stroke-width=".5"/></svg>
